src/img/about_star3.svg

<svg width="90" height="89" viewBox="0 0 90 89" fill="none" xmlns="http://www.w3.org/2000/svg">
<g clip-path="url(#clip0_76_199)">
<path d="M12.6919 31.0128L34.7209 35.9749L25.0844 15.6062L40.9559 31.6481L43.8809 9.3405L48.5549 31.3683L63.1148 14.2142L55.1125 35.2316L76.6863 28.6689L58.541 42.0094L80.2807 48.1282L57.7568 49.5488L72.7579 66.4011L53.0074 55.4598L56.5079 77.6951L45.7962 57.8621L36.6871 78.4236L38.4177 55.9912L19.5892 68.3529L33.2146 50.4482L10.6446 50.6771L31.8395 42.9861L12.6919 31.0128Z" fill="black"/>
</g>
<defs>
<clipPath id="clip0_76_199">
<rect width="69.3732" height="69.3732" fill="white" transform="translate(65.4929 88.8773) rotate(-160.054)"/>
</clipPath>
</defs>
</svg>

<svg width="90" height="89" fill="none" xmlns="http://www.w3.org/2000/svg"><g clip-path="url(#a)"><path d="m12.692 31.013 22.029 4.962-9.637-20.369 15.872 16.042L43.88 9.34l4.674 22.028 14.56-17.154-8.003 21.018 21.574-6.563-18.145 13.34 21.74 6.12-22.524 1.42 15 16.852-19.75-10.941 3.5 22.235-10.71-19.833-9.11 20.562 1.73-22.433L19.59 68.353l13.626-17.905-22.57.23 21.195-7.692-19.148-11.973Z" fill="#000"/></g><defs><clipPath id="a"><path fill="#fff" transform="rotate(-160.054 40.56 38.68)" d="M0 0h69.373v69.373H0z"/></clipPath></defs></svg>
